build/Karasa-Jaga/scalable/status/mail-unread-symbolic.svg

<svg height="16" width="16" xmlns="http://www.w3.org/2000/svg"><g fill="#bebebe"><path d="m15.09375 4.4375-5.15625 3.46875 1.40625 1 3.75 2.71875v-6.0625zm-.486328.9140625v.2109375 5.109375l-2.978516-2.1601562a.48618451.48618451 0 0 0 -.003906-.0019532l-.832031-.5917968z"/><path d="m6.65625 8.3125-.15625.09375-.125.09375-1.46875.96875-4 2.6875v.34375h14.1875v-.34375l-4-2.6875-1.46875-.96875-.125-.09375-.15625-.09375-1.1875.75-.125.09375h-.0625l-.125-.09375zm.0058594.5644531.9121094.5761719.1113281.0820312a.47347348.47347348 0 0 0 .2832031.09375h.0625a.47347348.47347348 0 0 0 .2832031-.09375l.1113281-.0820312.9121094-.5761719.0039063.0019531a.47347348.47347348 0 0 0 .0234375.015625l1.4667966.96875 3.222657 2.1640628h-12.1093755l3.2226563-2.1640628 1.4667968-.96875a.47347348.47347348 0 0 0 .0234375-.015625z"/><path d="m.90625 4.4375v1.125 6.0625l3.75-2.71875 1.40625-1zm.4414062.8300781 3.9394532 2.6484375-.8867188.6308594a.44198593.44198593 0 0 0 -.0039062.0019531l-3.0488282 2.2109379v-5.197266z"/><path d="m.90625 3.5v.40625.0625l6.4375 4.15625.3125.1875.34375.21875.34375-.21875.3125-.1875 6.4375-4.15625v-.0625-.40625h-.46875-3.5-1.9375-2.375-2.15625-3.28125zm.9257812.4863281h2.8242188 2.15625 2.375 1.9375 3.042969l-5.7695315 3.7265625-.3046875.1835938a.48618451.48618451 0 0 0 -.0117188.0058594l-.0820312.0527343-.0820312-.0527343a.48618451.48618451 0 0 0 -.0117188-.0058594l-.3046875-.1835938z"/></g></svg>

<?xml version="1.0" encoding="UTF-8" standalone="no"?>
<!-- Created with Inkscape (http://www.inkscape.org/) -->

<svg
   xmlns:dc="http://purl.org/dc/elements/1.1/"
   xmlns:cc="http://creativecommons.org/ns#"
   xmlns:rdf="http://www.w3.org/1999/02/22-rdf-syntax-ns#"
   xmlns:svg="http://www.w3.org/2000/svg"
   xmlns="http://www.w3.org/2000/svg"
   xmlns:sodipodi="http://sodipodi.sourceforge.net/DTD/sodipodi-0.dtd"
   xmlns:inkscape="http://www.inkscape.org/namespaces/inkscape"
   width="16px"
   height="16px"
   id="svg3112"
   version="1.1"
   inkscape:version="0.92.2 (unknown)"
   sodipodi:docname="mail-unread-symbolic.svg">
  <defs
     id="defs3114" />
  <sodipodi:namedview
     id="base"
     pagecolor="#ffffff"
     bordercolor="#666666"
     borderopacity="1.0"
     inkscape:pageopacity="0.0"
     inkscape:pageshadow="2"
     inkscape:zoom="5.6568543"
     inkscape:cx="4.9590867"
     inkscape:cy="-6.058199"
     inkscape:current-layer="layer1"
     showgrid="false"
     inkscape:grid-bbox="true"
     inkscape:document-units="px"
     inkscape:window-width="1366"
     inkscape:window-height="706"
     inkscape:window-x="0"
     inkscape:window-y="0"
     inkscape:window-maximized="1"
     inkscape:snap-global="false">
    <inkscape:grid
       type="xygrid"
       id="grid3145" />
  </sodipodi:namedview>
  <metadata
     id="metadata3117">
    <rdf:RDF>
      <cc:Work
         rdf:about="">
        <dc:format>image/svg+xml</dc:format>
        <dc:type
           rdf:resource="http://purl.org/dc/dcmitype/StillImage" />
        <dc:title />
      </cc:Work>
    </rdf:RDF>
  </metadata>
  <g
     id="layer1"
     inkscape:label="Layer 1"
     inkscape:groupmode="layer">
    <g
       id="g1491">
      <path
         id="rect2987"
         d="M 15.09375 4.4375 L 9.9375 7.90625 L 11.34375 8.90625 L 15.09375 11.625 L 15.09375 5.5625 L 15.09375 4.4375 z M 14.607422 5.3515625 L 14.607422 5.5625 L 14.607422 10.671875 L 11.628906 8.5117188 A 0.48618451 0.48618451 0 0 0 11.625 8.5097656 L 10.792969 7.9179688 L 14.607422 5.3515625 z "
         style="fill:#bebebe;fill-opacity:1;stroke:none" />
      <path
         id="path814"
         d="M 6.65625 8.3125 L 6.5 8.40625 L 6.375 8.5 L 4.90625 9.46875 L 0.90625 12.15625 L 0.90625 12.5 L 15.09375 12.5 L 15.09375 12.15625 L 11.09375 9.46875 L 9.625 8.5 L 9.5 8.40625 L 9.34375 8.3125 L 8.15625 9.0625 L 8.03125 9.15625 L 7.96875 9.15625 L 7.84375 9.0625 L 6.65625 8.3125 z M 6.6621094 8.8769531 L 7.5742188 9.453125 L 7.6855469 9.5351562 A 0.47347348 0.47347348 0 0 0 7.96875 9.6289062 L 8.03125 9.6289062 A 0.47347348 0.47347348 0 0 0 8.3144531 9.5351562 L 8.4257812 9.453125 L 9.3378906 8.8769531 L 9.3417969 8.8789062 A 0.47347348 0.47347348 0 0 0 9.3652344 8.8945312 L 10.832031 9.8632812 L 14.054688 12.027344 L 1.9453125 12.027344 L 5.1679688 9.8632812 L 6.6347656 8.8945312 A 0.47347348 0.47347348 0 0 0 6.6582031 8.8789062 L 6.6621094 8.8769531 z "
         style="fill:#bebebe;fill-opacity:1;stroke:none" />
      <path
         id="path816"
         d="M 0.90625 4.4375 L 0.90625 5.5625 L 0.90625 11.625 L 4.65625 8.90625 L 6.0625 7.90625 L 0.90625 4.4375 z M 1.3476562 5.2675781 L 5.2871094 7.9160156 L 4.4003906 8.546875 A 0.44198593 0.44198593 0 0 0 4.3964844 8.5488281 L 1.3476562 10.759766 L 1.3476562 5.5625 L 1.3476562 5.2675781 z "
         style="fill:#bebebe;fill-opacity:1;stroke:none" />
      <path
         id="path818"
         d="M 0.90625 3.5 L 0.90625 3.90625 L 0.90625 3.96875 L 7.34375 8.125 L 7.65625 8.3125 L 8 8.53125 L 8.34375 8.3125 L 8.65625 8.125 L 15.09375 3.96875 L 15.09375 3.90625 L 15.09375 3.5 L 14.625 3.5 L 11.125 3.5 L 9.1875 3.5 L 6.8125 3.5 L 4.65625 3.5 L 1.375 3.5 L 0.90625 3.5 z M 1.8320312 3.9863281 L 4.65625 3.9863281 L 6.8125 3.9863281 L 9.1875 3.9863281 L 11.125 3.9863281 L 14.167969 3.9863281 L 8.3984375 7.7128906 L 8.09375 7.8964844 A 0.48618451 0.48618451 0 0 0 8.0820312 7.9023438 L 8 7.9550781 L 7.9179688 7.9023438 A 0.48618451 0.48618451 0 0 0 7.90625 7.8964844 L 7.6015625 7.7128906 L 1.8320312 3.9863281 z "
         style="fill:#bebebe;fill-opacity:1;stroke:none" />
    </g>
  </g>
</svg>
